svg/emoji/tongue_line.svg

<?xml version="1.0" encoding="UTF-8"?>
<svg width="24px" height="24px" viewBox="0 0 24 24" version="1.1" xmlns="http://www.w3.org/2000/svg" xmlns:xlink="http://www.w3.org/1999/xlink">
    <title>tongue_line</title>
    <g id="Icon" stroke="none" stroke-width="1" fill="none" fill-rule="evenodd">
        <g id="Emoji" transform="translate(-912.000000, 0.000000)">
            <g id="tongue_line" transform="translate(912.000000, 0.000000)">
                <path d="M24,0 L24,24 L0,24 L0,0 L24,0 Z M12.5935,23.2578 L12.5819,23.2595 L12.5109,23.295 L12.4919,23.2987 L12.4767,23.295 L12.4057,23.2595 C12.3958,23.2564 12.387,23.259 12.3821,23.2649 L12.378,23.2758 L12.3609,23.7031 L12.3659,23.7235 L12.3769,23.7357 L12.4805,23.8097 L12.4953,23.8136 L12.5071,23.8097 L12.6107,23.7357 L12.6233,23.7197 L12.6267,23.7031 L12.6096,23.2758 C12.6076,23.2657 12.601,23.2593 12.5935,23.2578 Z M12.8584,23.1453 L12.8445,23.1473 L12.6598,23.2397 L12.6499,23.2499 L12.6472,23.2611 L12.6651,23.6906 L12.6699,23.7034 L12.6784,23.7105 L12.8793,23.8032 C12.8914,23.8069 12.9022,23.803 12.9078,23.7952 L12.9118,23.7812 L12.8777,23.1665 C12.8753,23.1546 12.8674,23.147 12.8584,23.1453 Z M12.143,23.1473 C12.1332,23.1424 12.1222,23.1453 12.1156,23.1526 L12.1099,23.1665 L12.0758,23.7812 C12.0751,23.7927 12.0828,23.8019 12.0926,23.8046 L12.1083,23.8032 L12.3092,23.7105 L12.3186,23.7024 L12.3225,23.6906 L12.3404,23.2611 L12.3372,23.2485 L12.3278,23.2397 L12.143,23.1473 Z" id="MingCute" fill-rule="nonzero"></path>
                <path d="M12,4 C7.58172,4 4,7.58172 4,12 C4,16.4183 7.58172,20 12,20 C16.4183,20 20,16.4183 20,12 C20,7.58172 16.4183,4 12,4 Z M2,12 C2,6.47715 6.47715,2 12,2 C17.5228,2 22,6.47715 22,12 C22,17.5228 17.5228,22 12,22 C6.47715,22 2,17.5228 2,12 Z M7,9.5 C7,8.67157 7.67157,8 8.5,8 C9.32843,8 10,8.67157 10,9.5 C10,10.3284 9.32843,11 8.5,11 C7.67157,11 7,10.3284 7,9.5 Z M9,13 C8.44771,13 8,13.4477 8,14 C8,14.5523 8.44771,15 9,15 L9,16 C9,17.6569 10.3431,19 12,19 C13.6569,19 15,17.6569 15,16 L15,15 C15.5523,15 16,14.5523 16,14 C16,13.4477 15.5523,13 15,13 L14,13 L10,13 L9,13 Z M11,16 L11,15 L13,15 L13,16 C13,16.5523 12.5523,17 12,17 C11.4477,17 11,16.5523 11,16 Z M16.9487,7.6838 C16.7741,7.15986 16.2078,6.8767 15.6838,7.05134 C14.9624,7.29181 14.3677,7.7166 13.8923,8.2651 C13.4434,8.78309 13.1794,9.29964 13.0514,9.6838 C12.8355,10.3313 13.3175,11 14,11 C14.2551,11 14.7512,11.1654 15.2929,11.7071 C15.6835,12.0977 16.3166,12.0977 16.7071,11.7071 C17.0977,11.3166 17.0977,10.6834 16.7071,10.2929 C16.3551,9.9569 15.9813,9.65188 15.55,9.42103 C15.7766,9.21552 16.0228,9.04654 16.3163,8.94871 C16.8402,8.77406 17.1234,8.20774 16.9487,7.6838 Z" id="形状" fill="#09244B"></path>
            </g>
        </g>
    </g>
</svg>

<svg xmlns="http://www.w3.org/2000/svg" width="24" height="24"><g fill="none" fill-rule="evenodd"><path d="M24 0v24H0V0h24ZM12.594 23.258l-.012.002-.071.035-.02.004-.014-.004-.071-.036c-.01-.003-.019 0-.024.006l-.004.01-.017.428.005.02.01.013.104.074.015.004.012-.004.104-.074.012-.016.004-.017-.017-.427c-.002-.01-.009-.017-.016-.018Zm.264-.113-.014.002-.184.093-.01.01-.003.011.018.43.005.012.008.008.201.092c.012.004.023 0 .029-.008l.004-.014-.034-.614c-.003-.012-.01-.02-.02-.022Zm-.715.002a.023.023 0 0 0-.027.006l-.006.014-.034.614c0 .012.007.02.017.024l.015-.002.201-.093.01-.008.003-.011.018-.43-.003-.012-.01-.01-.184-.092Z"/><path fill="#09244B" d="M12 4a8 8 0 1 0 0 16 8 8 0 0 0 0-16ZM2 12C2 6.477 6.477 2 12 2s10 4.477 10 10-4.477 10-10 10S2 17.523 2 12Zm5-2.5a1.5 1.5 0 1 1 3 0 1.5 1.5 0 0 1-3 0ZM9 13a1 1 0 1 0 0 2v1a3 3 0 1 0 6 0v-1a1 1 0 1 0 0-2H9Zm2 3v-1h2v1a1 1 0 1 1-2 0Zm5.949-8.316a1 1 0 0 0-1.265-.633 4.045 4.045 0 0 0-1.792 1.214 4.333 4.333 0 0 0-.84 1.419A1 1 0 0 0 14 11c.255 0 .751.165 1.293.707a1 1 0 1 0 1.414-1.414c-.352-.336-.726-.641-1.157-.872.227-.205.473-.374.766-.472a1 1 0 0 0 .633-1.265Z"/></g></svg>
